X: 1
T: James Bryan's
M: 4/4
L: 1/8
R: reel
K: Dmaj
AB|d2d2 BdAB|dBAF E2 DE|F2 D(B B2) BA|F2 A(A A2) AB|
d2d2 fffe|dfed BdAF|D2 FD E2E2|D2 DD D2:|
|:AB|d2d2 fffe|dfed B2 AB|d2 c(d d)e f2|a2 a(a a2) e2|
f2 af a3 b|fedf edBd|ABcd ecaf|eddd d2:|
